X: 36908
T: Shoot When The Ducks Are Flying
R: reel
M: 4/4
K: Fmajor
|:F2FG FCDF|ACGA FDDF|CFFE FF (3ABc|dfcA BAGA|
AFFE FCDF|ACGA FDDF|AccA Bcdc|1 . cAGB AFFE:|2 . cAGB AF ~F||
|:c2cA Bcde|ffcA BG ~G2|cfcA Bcdf|efge fcga|
bbgf eccA|BDBc BAGA|FccA Bcdc|1 . cAGB AF ~F:|2 . cAGB AFAB||
|:cffA BBAB|cffA G2AB|cffA Bcdf|efge fdcA:|

